X: 14044
T: Fraser's
R: jig
M: 6/8
K: Gmixolydian
Z: Nigel Gatherer by ear from a Gan Ainm 12856
D|GFG d3|dcd g2a|f2c dfd|cAF AGF|
GFG d3|dcd g2a|f2d cAF|G3 G2:|
d|g3 de^f|g^fg d2e|=f2c dfd|cAF F2z|
g3 de^f|g^fg d2e|=fed cAF|G3 Gzd|
g^fg def|g^fg d2e|=f2c dfd|cAF AGF|
GFG dcd|gfg a2g|f2d cAF|G3 Gzz||

